svg/play_box_lock.svg

<svg xmlns="http://www.w3.org/2000/svg" id="mdi-play-box-lock" viewBox="0 0 24 24"><path d="M23 17.3V20.8C23 21.4 22.4 22 21.7 22H16.2C15.6 22 15 21.4 15 20.7V17.2C15 16.6 15.6 16 16.2 16V14.5C16.2 13.1 17.6 12 19 12C20.4 12 21.8 13.1 21.8 14.5V16C22.4 16 23 16.6 23 17.3M13 19V21H4C2.89 21 2 20.1 2 19V5C2 3.89 2.89 3 4 3H18C19.1 3 20 3.89 20 5V10.1L19 10L18 10.1C15.79 10.55 14.12 12.45 14 14.76C13.39 15.31 13 16.11 13 17V19M20.5 14.5C20.5 13.7 19.8 13.2 19 13.2C18.2 13.2 17.5 13.7 17.5 14.5V16H20.5V14.5M9 8V16L14 12L9 8Z" /></svg>

<svg xmlns="http://www.w3.org/2000/svg" viewBox="0 0 24 24"><path d="M23 17.3v3.5c0 .6-.6 1.2-1.3 1.2h-5.5c-.6 0-1.2-.6-1.2-1.3v-3.5c0-.6.6-1.2 1.2-1.2v-1.5c0-1.4 1.4-2.5 2.8-2.5s2.8 1.1 2.8 2.5V16c.6 0 1.2.6 1.2 1.3M13 19v2H4a2 2 0 0 1-2-2V5c0-1.11.89-2 2-2h14a2 2 0 0 1 2 2v5.1l-1-.1-1 .1a5.02 5.02 0 0 0-4 4.66c-.61.55-1 1.35-1 2.24zm7.5-4.5c0-.8-.7-1.3-1.5-1.3s-1.5.5-1.5 1.3V16h3zM9 8v8l5-4z"/></svg>
